X:1
T:Title
%%score { ( 1 4 ) | ( 2 3 ) }
L:1/8
M:4/4
K:Eb
V:1 treble nm="Grand Piano"
V:4 treble 
V:2 bass 
V:3 bass 
V:1
 z4 z2[Q:1/4=100] GA | [B,GB]3 [EAc] [EGB]3 [B,EG] | [A,DF]2 [B,DG]2 [G,E]3 [GB] | %3
 [Ac]3 [Ge] [DFB]2 [CF=A]2 | [DFB]6 [B,GB]2 | [Ge]3 [Bd] [Ac]3 [GB] | [EAc]2 [EAe]2 [EGB]3 G | %7
 B3 G [DF]3 E | E6 z2 | G2 G>G G2 [DF]>[DG] | E6 z2 | [Ec]2 [Ec]>[Ec] c>e [Ed]>[Ec] | B6 z2 | %13
 G2 G>G G2 [DF]>[DG] | E6 [EG]2 | [DB]3 [EG] [DF]3 E |[M:3/4] E6 |] %17
V:2
 z4 z2 EF | E,3 E, E,3 E, | B,,2 B,,2 E,3 [E,E] | [E,E]3 [E,B,] F,2 F,2 | B,,6 E,2 | %5
 [E,B,]3 [E,B,] [E,E]3 [E,E] | C,2 C,2 E,3 [E,B,E] | [E,G,E]3 [E,B,E] [B,,A,]3 [E,G,] | %8
 [E,G,]6 z2 | [E,B,E]2 [E,B,E]>[E,B,E] [E,B,E]2 [B,,A,]>[B,,B,] | [E,G,]6 z2 | z4 A,2 z2 | %12
 [E,G,E]6 z2 | [E,B,E]2 [E,B,E]>[E,B,E] [E,B,E]2 [B,,A,]>[B,,B,] | [C,G,]6 [C,E,]2 | %15
 [B,,F,]3 [B,,G,] [B,,A,]3 [E,G,B,] |[M:3/4] [E,G,B,]6 |] %17
V:3
 z4 z2 [E,B,]2 | x8 | x8 | x8 | x8 | x8 | x8 | x8 | x8 | x8 | x8 | %11
 [A,,A,]2 [A,,A,]>[A,,A,] A,,->[A,,C] [A,,B,]>[A,,A,] | x8 | x8 | x8 | x8 |[M:3/4] x6 |] %17
V:4
 x8 | x8 | x8 | x8 | x8 | x8 | x8 | x8 | x8 | x8 | x8 | z4 E2 z2 | x8 | x8 | x8 | x8 |[M:3/4] x6 |] %17

